icons/1_Primary/Flourish.svg

<svg width="1024" height="1024" viewBox="0 0 1024 1024" fill="none" xmlns="http://www.w3.org/2000/svg">
<g clip-path="url(#clip0_2_2214)">
<path d="M512 1024C794.77 1024 1024 794.77 1024 512C1024 229.23 794.77 0 512 0C229.23 0 0 229.23 0 512C0 794.77 229.23 1024 512 1024Z" fill="#BA6561"/>
<path d="M201.739 588.59V519.19H252.999V493.93H201.739V456.4H270.289V431.14H172.439V588.72H201.749L201.739 588.59ZM279.849 430.89H306.209V588.47H279.859L279.849 430.89ZM365.069 472.83C335.069 472.83 316.999 495.76 316.999 531.83C316.999 567.9 334.999 590.83 365.069 590.83C395.139 590.83 413.139 567.9 413.139 531.83C413.139 495.76 395.119 472.84 365.079 472.84L365.069 472.83ZM365.069 568.97C350.359 568.97 343.369 557.2 343.369 531.81C343.369 506.42 350.369 494.65 365.069 494.65C379.769 494.65 386.769 506.42 386.769 531.81C386.769 557.2 379.799 569 365.079 569L365.069 568.97ZM485.999 475V557C481.589 562.27 472.759 569 461.349 569C452.349 569 447.739 564.22 447.739 548.89V475H421.239V552.74C421.239 575.92 431.909 590.74 453.979 590.74C466.979 590.74 478.259 583.26 488.069 576.39V588.65H512.349V475.17H485.999V475ZM553.689 588.55V519.55C553.689 516.73 565.219 501.16 578.339 501.16C579.897 501.1 581.457 501.184 582.999 501.41V472.84C567.299 473.33 558.349 480.93 551.999 494.42H551.629V475H527.309V588.59H553.669L553.689 588.55ZM618.299 475H591.939V588.59H618.299V475ZM618.299 454V428.81H591.939V454.07L618.299 454ZM708.059 490.05C698.499 478.52 683.779 472.76 669.059 472.76C649.929 472.76 632.519 484.53 632.519 505.76C632.519 545.25 687.819 538.26 687.819 557.76C687.819 565.36 681.439 570.64 672.119 570.64C660.839 570.64 652.499 563.04 646.369 554.21L628.709 567.7C638.519 582.54 652.989 590.63 670.649 590.63C693.829 590.63 711.239 580.21 711.239 556.54C711.239 515.09 655.939 523.31 655.939 503.93C655.939 497.19 660.599 492.77 670.779 492.77C679.119 492.77 686.109 498.9 691.379 504.77L708.059 490.06V490.05ZM747.909 588.52V506.68C752.319 501.41 761.149 494.68 772.559 494.68C781.559 494.68 786.169 499.46 786.169 514.79V588.61H812.529V510.85C812.529 487.67 801.859 472.85 779.789 472.85C766.789 472.85 755.999 480.33 747.909 487.2V430.9H721.549V588.47H747.909V588.52ZM882.799 421.95L908.059 429.43L907.199 434.09L880.839 431.15L901.319 447.83L898.869 451.51L875.819 438.88L888.079 462.18L884.519 464.63L867.839 444.27L870.539 470.39L866.129 471.25L858.399 446L850.919 471.26L846.259 470.4L848.959 444.28L832.529 464.64L828.729 462.19L841.239 438.89L818.059 451.5L815.609 447.82L836.209 431.14L809.839 434L808.999 429.3L833.889 421.82L808.999 414.34L809.859 409.68L836.219 412.5L815.619 395.82L818.069 392.14L841.249 404.77L828.739 381.47L832.539 379.02L848.999 399.38L846.299 373.26L850.959 372.4L858.439 397.66L866.169 372.4L870.579 373.26L867.879 399.38L884.519 379L888.079 381.45L875.819 404.75L898.869 392.12L901.319 395.8L880.839 412.72L907.199 409.9L908.059 414.56C908.059 414.47 882.799 421.95 882.799 421.95Z" fill="white"/>
</g>
<defs>
<clipPath id="clip0_2_2214">
<rect width="1024" height="1024" fill="white"/>
</clipPath>
</defs>
</svg>

<svg xmlns="http://www.w3.org/2000/svg" width="1024" height="1024" fill="none">
   <g clip-path="url(#a)">
      <path fill="#BA6561" d="M512 1024c282.77 0 512-229.23 512-512S794.77 0 512 0 0 229.23 0 512s229.23 512 512 512Z"/>
      <path fill="#fff" d="M201.739 588.59v-69.4h51.26v-25.26h-51.26V456.4h68.55v-25.26h-97.85v157.58h29.31l-.01-.13Zm78.11-157.7h26.36v157.58h-26.35l-.01-157.58Zm85.22 41.94c-30 0-48.07 22.93-48.07 59s18 59 48.07 59 48.07-22.93 48.07-59-18.02-58.99-48.06-58.99l-.01-.01Zm0 96.14c-14.71 0-21.7-11.77-21.7-37.16 0-25.39 7-37.16 21.7-37.16s21.7 11.77 21.7 37.16c0 25.39-6.97 37.19-21.69 37.19l-.01-.03ZM485.999 475v82c-4.41 5.27-13.24 12-24.65 12-9 0-13.61-4.78-13.61-20.11V475h-26.5v77.74c0 23.18 10.67 38 32.74 38 13 0 24.28-7.48 34.09-14.35v12.26h24.28V475.17h-26.35V475Zm67.69 113.55v-69c0-2.82 11.53-18.39 24.65-18.39 1.558-.06 3.118.024 4.66.25v-28.57c-15.7.49-24.65 8.09-31 21.58h-.37V475h-24.32v113.59h26.36l.02-.04ZM618.299 475h-26.36v113.59h26.36V475Zm0-21v-25.19h-26.36v25.26l26.36-.07Zm89.76 36.05c-9.56-11.53-24.28-17.29-39-17.29-19.13 0-36.54 11.77-36.54 33 0 39.49 55.3 32.5 55.3 52 0 7.6-6.38 12.88-15.7 12.88-11.28 0-19.62-7.6-25.75-16.43l-17.66 13.49c9.81 14.84 24.28 22.93 41.94 22.93 23.18 0 40.59-10.42 40.59-34.09 0-41.45-55.3-33.23-55.3-52.61 0-6.74 4.66-11.16 14.84-11.16 8.34 0 15.33 6.13 20.6 12l16.68-14.71v-.01Zm39.85 98.47v-81.84c4.41-5.27 13.24-12 24.65-12 9 0 13.61 4.78 13.61 20.11v73.82h26.36v-77.76c0-23.18-10.67-38-32.74-38-13 0-23.79 7.48-31.88 14.35v-56.3h-26.36v157.57h26.36v.05Zm134.89-166.57 25.26 7.48-.86 4.66-26.36-2.94 20.48 16.68-2.45 3.68-23.05-12.63 12.26 23.3-3.56 2.45-16.68-20.36 2.7 26.12-4.41.86-7.73-25.25-7.48 25.26-4.66-.86 2.7-26.12-16.43 20.36-3.8-2.45 12.51-23.3-23.18 12.61-2.45-3.68 20.6-16.68-26.37 2.86-.84-4.7 24.89-7.48-24.89-7.48.86-4.66 26.36 2.82-20.6-16.68 2.45-3.68 23.18 12.63-12.51-23.3 3.8-2.45 16.46 20.36-2.7-26.12 4.66-.86 7.48 25.26 7.73-25.26 4.41.86-2.7 26.12 16.64-20.38 3.56 2.45-12.26 23.3 23.05-12.63 2.45 3.68-20.48 16.92 26.36-2.82.86 4.66c0-.09-25.26 7.39-25.26 7.39Z"/>
   </g>
   <defs>
      <clipPath id="a">
         <path fill="#fff" d="M0 0h1024v1024H0z"/>
      </clipPath>
   </defs>
</svg>
